X:3984
T:Marcel Martin
O:England
M:4/4
L:1/8
S:Rodney Miller
C:Will Welling
K:E
gfed e2 B(c|c)BAc B2 ef|gfed e2 c(B|B)dfg a4|
gfed e2 B(c|c)BAc B2 ef|gfed e2 c(B|B)dfd e4:|
gfed e2 e'2|e'2 d'2|c'2 c'd'|b2 bd' c'2 c'e|gegb f4|
gfed e2 e'2|e'2 d'2|c'2 c'd'|b4 g3 e|fefg e4:|


